X:90
T:Bird in the Bush
S:Learned from Joe, and Tim at Tigin session 1/23/16
R:Reel
M:4/4
L:1/8
K:G
d2eB dBB2 | dBAB G2GE | DEGA BGG2 | Bdef g2fe |
d2eB dBB2 | dBAB G2GE | DEGA B2eB | dBAc BGG2 :|
|: Bdef g2fg | agef gfed | Bdef gfgb | agab g2ga |
bgg2 agef | g2fe dBAG | DEGA B2eB | dBAc BGG2 :|

%%newpage
%%scale .75
%%staffsep 35

